X: 1
T: the Bergen Polka
T: Ringnesen's Reinl\"ander
R: polka, shottish
Z: 2021 John Chambers <jc:trillian.mit.edu>
S: handout for online BSFC workshop with Jennifer Wrigley 2021-05-17
M: 2/4
L: 1/16
K: D
z2 \
|: D2(3(FED) A2A2 | D2(3(FED) f2f2 | g>fe>d \
[1,3 c>BA2 | c>BA>F G>FE2 :|[2,4 c>AB>c | d2(3(edc) d2 :|
|: (3(def) | g2B2 B>gf>e | f2A2 A>fe>d | c2E2 G>AB>c |\
[1,3 d2D2 D2 :|[2 d2(3(edc) d2 :|[4 d2d2 d2 |]
